dist/img/svg/laptop-solid.svg

<svg fill="#666" xmlns="http://www.w3.org/2000/svg" viewBox="0 0 24 24"><path d="M4 6h16v10H4m16 2a2 2 0 002-2V6a2 2 0 00-2-2H4c-1.11 0-2 .89-2 2v10a2 2 0 002 2H0v2h24v-2h-4z"/></svg>

<svg fill="#666" xmlns="http://www.w3.org/2000/svg" viewBox="0 0 24 24"><path d="M4,6H20V16H4M20,18A2,2 0 0,0 22,16V6C22,4.89 21.1,4 20,4H4C2.89,4 2,4.89 2,6V16A2,2 0 0,0 4,18H0V20H24V18H20Z" /></svg>
